svgs/calendar.svg

<svg width="24" height="24" viewBox="0 0 24 24" fill="none" xmlns="http://www.w3.org/2000/svg">
<path d="M14.5 18C13.8 18 13.2083 17.7583 12.725 17.275C12.2417 16.7917 12 16.2 12 15.5C12 14.8 12.2417 14.2083 12.725 13.725C13.2083 13.2417 13.8 13 14.5 13C15.2 13 15.7917 13.2417 16.275 13.725C16.7583 14.2083 17 14.8 17 15.5C17 16.2 16.7583 16.7917 16.275 17.275C15.7917 17.7583 15.2 18 14.5 18ZM5 22C4.45 22 3.979 21.8043 3.587 21.413C3.19567 21.021 3 20.55 3 20V6C3 5.45 3.19567 4.97933 3.587 4.588C3.979 4.196 4.45 4 5 4H6V2H8V4H16V2H18V4H19C19.55 4 20.021 4.196 20.413 4.588C20.8043 4.97933 21 5.45 21 6V20C21 20.55 20.8043 21.021 20.413 21.413C20.021 21.8043 19.55 22 19 22H5ZM5 20H19V10H5V20Z" fill="#FFF1C0"/>
</svg>

<svg xmlns="http://www.w3.org/2000/svg" viewBox="0 0 24 24"><path d="M14.5 18c-.7 0-1.292-.242-1.775-.725S12 16.2 12 15.5s.242-1.292.725-1.775S13.8 13 14.5 13s1.292.242 1.775.725S17 14.8 17 15.5s-.242 1.292-.725 1.775S15.2 18 14.5 18M5 22a1.93 1.93 0 0 1-1.413-.587A1.928 1.928 0 0 1 3 20V6c0-.55.196-1.02.587-1.412A1.927 1.927 0 0 1 5 4h1V2h2v2h8V2h2v2h1c.55 0 1.021.196 1.413.588.391.391.587.862.587 1.412v14a1.93 1.93 0 0 1-.587 1.413A1.928 1.928 0 0 1 19 22zm0-2h14V10H5z"/></svg>
